X: 1193
T: The Merry Days of Easter
M:C|
L:1/8
R:Reel
B:O'Neill's 1193
N:Collected by McFadden
Z:Transcribed by Trish O'Neil
K:G
(dc) \
| BGGA Bcdg | (3efg dBA2dc | BGGA Bcdg | (3efg dB"(end)"G2 :|
(ga) \
| bgaf gfed | ea{b}aga2(ga) | bgaf gfed | (3Bcd efg2(ga) |
| (3bag af (bg)af | eaaba2(ga) | bc'ba gfed | ea{b}af gedc |]


